public/assets/img/save1.svg

<svg width="46" height="54" viewBox="0 0 46 54" fill="none" xmlns="http://www.w3.org/2000/svg">
<path d="M44.3182 6.5819C37.6873 6.30705 28.8261 4.65593 24.1785 0.453622C23.855 0.161051 23.4366 0 23.0001 0C22.5638 0 22.1453 0.161051 21.8218 0.453517C18.0374 3.87556 10.3201 6.22383 1.68184 6.5819C0.738717 6.62103 0 7.38747 0 8.32678V19.2622C0 19.6991 0.355537 20.0532 0.79432 20.0532C1.2331 20.0532 1.58864 19.6991 1.58864 19.2622V8.32678C1.58864 8.23839 1.65854 8.16636 1.74782 8.16256C10.8774 7.78414 18.7809 5.34011 22.8896 1.62475C22.953 1.56759 23.0474 1.56769 23.1104 1.62475C28.1105 6.14578 37.418 7.87917 44.2522 8.16256C44.3415 8.16625 44.4114 8.23839 44.4114 8.32678V26.3871C44.4114 35.1601 39.651 43.2984 31.9877 47.626L23.9385 52.1716C23.3671 52.4943 22.6328 52.4942 22.0614 52.1716L14.0122 47.626C6.34905 43.2984 1.58864 35.1601 1.58864 26.3871V22.9536C1.58864 22.5168 1.2331 22.1626 0.79432 22.1626C0.355537 22.1626 0 22.5168 0 22.9536V26.3871C0 35.7286 5.06892 44.3941 13.2287 49.0022L21.2779 53.5478C22.3423 54.1488 23.6508 54.1526 24.7221 53.5478L32.7713 49.0022C40.9311 44.3942 46 35.7286 46 26.3871V8.32678C46 7.38737 45.2613 6.62092 44.3182 6.5819Z" fill="#90A1AE"/>
<path d="M14.2522 38.6909H26.2404C26.6791 38.6909 27.0347 38.3368 27.0347 37.8999C27.0347 37.4631 26.6791 37.1089 26.2404 37.1089H14.2522C13.6313 37.1089 13.1262 36.6059 13.1262 35.9877V23.5049C13.1262 22.8866 13.6313 22.3836 14.2522 22.3836H31.7476C32.3685 22.3836 32.8736 22.8866 32.8736 23.5049V35.9877C32.8736 36.6059 32.3685 37.1089 31.7476 37.1089H29.9472C29.5084 37.1089 29.1529 37.4631 29.1529 37.8999C29.1529 38.3368 29.5084 38.6909 29.9472 38.6909H31.7476C33.2445 38.6909 34.4622 37.4783 34.4622 35.9877V23.5049C34.4622 22.0143 33.2445 20.8016 31.7476 20.8016H31.48V19.1335C31.48 14.4769 27.6758 10.6886 23 10.6886C18.3241 10.6886 14.5199 14.4769 14.5199 19.1335V20.8016H14.2523C12.7555 20.8016 11.5377 22.0143 11.5377 23.5049V35.9877C11.5377 37.4783 12.7555 38.6909 14.2522 38.6909ZM26.8723 20.8016H19.1277V19.1335C19.1277 17.0072 20.8648 15.2772 23.0001 15.2772C25.1353 15.2772 26.8724 17.0072 26.8724 19.1335L26.8723 20.8016ZM16.1085 19.1335C16.1085 15.3494 19.2 12.2706 23 12.2706C26.7999 12.2706 29.8914 15.3493 29.8914 19.1335V20.8016H28.4609V19.1335C28.4609 16.1348 26.0111 13.6952 22.9998 13.6952C19.9886 13.6952 17.5388 16.1348 17.5388 19.1335V20.8016H16.1085V19.1335Z" fill="#90A1AE"/>
<path d="M22.9999 35.477C24.2041 35.477 25.1839 34.5014 25.1839 33.3021V30.5385C26.0457 29.8712 26.5652 28.8341 26.5652 27.7332C26.5652 25.7755 24.9658 24.1827 22.9999 24.1827C21.034 24.1827 19.4346 25.7755 19.4346 27.7332C19.4346 28.8554 19.9552 29.874 20.816 30.5387V33.3021C20.816 34.5013 21.7957 35.477 22.9999 35.477ZM22.9999 25.7648C24.0898 25.7648 24.9766 26.6479 24.9766 27.7333C24.9766 28.4319 24.5988 29.0844 23.9905 29.4363C23.7457 29.5778 23.5952 29.8384 23.5952 30.1202V33.3021C23.5952 33.629 23.3282 33.895 22.9999 33.895C22.6716 33.895 22.4046 33.6291 22.4046 33.3021V30.1202C22.4046 29.8384 22.254 29.5778 22.0093 29.4363C21.4211 29.096 21.0232 28.4647 21.0232 27.7333C21.0232 26.6478 21.91 25.7648 22.9999 25.7648Z" fill="#90A1AE"/>
<path d="M15.3165 45.5163L22.1702 49.3867C22.6817 49.6758 23.3176 49.6761 23.8296 49.3868L30.6835 45.5163C37.5994 41.6108 41.8955 34.2662 41.8955 26.3489V12.0642C41.8955 11.2129 41.2552 10.4978 40.4064 10.4009C33.7972 9.64607 28.0814 7.88927 23.8771 5.32026C23.336 4.98972 22.6638 4.98982 22.1231 5.32026C17.9186 7.88927 12.2026 9.64607 5.59348 10.4009C4.74461 10.4978 4.10439 11.2128 4.10439 12.0642V26.3489C4.1045 34.2662 8.4006 41.6107 15.3165 45.5163ZM5.69314 12.0642C5.69314 12.0173 5.72809 11.978 5.77458 11.9726C12.6125 11.1917 18.5531 9.35761 22.954 6.66868C22.9825 6.65117 23.0181 6.65128 23.0464 6.66868C27.447 9.35761 33.3875 11.1917 40.2255 11.9726C40.2719 11.9779 40.3069 12.0172 40.3069 12.0641V26.3488C40.3069 33.6976 36.3192 40.5148 29.9 44.14L23.0458 48.0106C23.0174 48.0267 22.9824 48.0266 22.954 48.0105L16.1001 44.14C9.68094 40.5148 5.69314 33.6976 5.69314 26.3488V12.0642Z" fill="#90A1AE"/>
</svg>

<svg width="46" height="54" fill="none" xmlns="http://www.w3.org/2000/svg"><path d="M44.318 6.582c-6.63-.275-15.492-1.926-20.14-6.128a1.753 1.753 0 0 0-2.356 0c-3.785 3.422-11.502 5.77-20.14 6.128A1.746 1.746 0 0 0 0 8.327v10.935c0 .437.356.791.794.791a.793.793 0 0 0 .795-.79V8.326c0-.089.07-.16.159-.164 9.13-.379 17.033-2.823 21.142-6.538a.164.164 0 0 1 .22 0c5 4.52 14.308 6.254 21.142 6.538.09.003.16.075.16.164v18.06c0 8.773-4.761 16.911-12.424 21.239l-8.05 4.546a1.941 1.941 0 0 1-1.877 0l-8.049-4.546C6.35 43.298 1.59 35.16 1.59 26.387v-3.433a.793.793 0 0 0-.795-.791.793.793 0 0 0-.794.79v3.434c0 9.342 5.069 18.007 13.229 22.615l8.049 4.546a3.505 3.505 0 0 0 3.444 0l8.05-4.546C40.931 44.394 46 35.73 46 26.387V8.327c0-.94-.739-1.706-1.682-1.745Z" fill="#90A1AE"/><path d="M14.252 38.69H26.24a.793.793 0 0 0 .795-.79.793.793 0 0 0-.795-.791H14.252c-.62 0-1.126-.503-1.126-1.121V23.505c0-.618.505-1.121 1.126-1.121h17.496c.62 0 1.126.503 1.126 1.12v12.484c0 .618-.506 1.12-1.126 1.12h-1.8a.793.793 0 0 0-.795.792c0 .437.355.79.794.79h1.8a2.712 2.712 0 0 0 2.715-2.702V23.505a2.712 2.712 0 0 0-2.714-2.703h-.268v-1.668c0-4.657-3.804-8.445-8.48-8.445s-8.48 3.788-8.48 8.445v1.668h-.268a2.712 2.712 0 0 0-2.714 2.703v12.483a2.712 2.712 0 0 0 2.714 2.703Zm12.62-17.888h-7.744v-1.668c0-2.127 1.737-3.857 3.872-3.857s3.872 1.73 3.872 3.857v1.668Zm-10.764-1.668c0-3.785 3.092-6.863 6.892-6.863 3.8 0 6.891 3.078 6.891 6.863v1.668h-1.43v-1.668c0-3-2.45-5.439-5.461-5.439s-5.461 2.44-5.461 5.439v1.668h-1.43v-1.668Z" fill="#90A1AE"/><path d="M23 35.477a2.182 2.182 0 0 0 2.184-2.175v-2.764a3.56 3.56 0 0 0 1.381-2.805c0-1.957-1.6-3.55-3.565-3.55a3.562 3.562 0 0 0-3.565 3.55c0 1.122.52 2.141 1.381 2.806v2.763c0 1.2.98 2.175 2.184 2.175Zm0-9.712c1.09 0 1.977.883 1.977 1.968 0 .699-.378 1.351-.986 1.703a.79.79 0 0 0-.396.684v3.182a.595.595 0 0 1-1.19 0V30.12a.79.79 0 0 0-.396-.684 1.963 1.963 0 0 1-.986-1.703c0-1.085.887-1.968 1.977-1.968Z" fill="#90A1AE"/><path d="m15.316 45.516 6.854 3.87c.512.29 1.148.29 1.66 0l6.854-3.87c6.915-3.905 11.211-11.25 11.211-19.167V12.064c0-.851-.64-1.566-1.489-1.663-6.609-.755-12.325-2.512-16.529-5.08a1.675 1.675 0 0 0-1.754 0c-4.204 2.568-9.92 4.325-16.53 5.08a1.676 1.676 0 0 0-1.489 1.663V26.35c0 7.917 4.297 15.262 11.212 19.167ZM5.694 12.064c0-.047.035-.086.082-.091 6.838-.781 12.778-2.615 17.179-5.304a.088.088 0 0 1 .092 0c4.401 2.689 10.342 4.523 17.18 5.304a.092.092 0 0 1 .08.091V26.35c0 7.349-3.987 14.166-10.406 17.791l-6.854 3.87a.093.093 0 0 1-.092 0L16.1 44.14C9.68 40.515 5.693 33.698 5.693 26.349V12.064Z" fill="#90A1AE"/></svg>
